svgs/1F910.svg

<svg xmlns="http://www.w3.org/2000/svg" xmlns:xlink="http://www.w3.org/1999/xlink" preserveAspectRatio="none" viewBox="0 0 72 72"><defs><path id="a" fill="#FCC21B" d="M128 93.45q0-27.05-8.55-47.15Q103.8 9.5 64 9.5q-39.85 0-55.45 36.8Q0 66.4 0 93.45q0 10.4 18.75 17.75T64 118.55q26.55 0 45.25-7.35Q128 103.85 128 93.45z"/><path id="b" fill="#2F2F2F" d="M36.05 51.5q-2.35 2.9-2.3 6.9.05 4 2.45 6.85 2.45 2.8 5.8 2.75 3.35 0 5.7-2.85 2.35-2.9 2.3-6.9-.05-4-2.45-6.85-2.4-2.85-5.75-2.8-3.35.05-5.75 2.9z"/><path id="c" fill="#2F2F2F" d="M94.2 58.3q-.05-4-2.4-6.85-2.4-2.85-5.75-2.8-3.35 0-5.75 2.85t-2.4 6.85q.05 4 2.45 6.85 2.4 2.85 5.75 2.8 3.35 0 5.7-2.85 2.4-2.85 2.4-6.85z"/><path id="d" fill="#2F2F2F" d="M98.7 85.35Q97 84.1 95.1 83.9q-1.85-.25-2.8.65l-2.8 2.7q-.95.95-.65 2.7.3 1.75 1.7 3.3l15.95 18.2q1.45 1.6 3.6 1.7 2.2.05 3.85-1.5l4.9-4.65q1.65-1.6 1.6-3.6-.1-2.05-1.9-3.4L98.7 85.35m13.2 16.85q.8-.75 2-.75t2.1.7q.9.75.95 1.85.05 1.05-.8 1.85l-3.5 3.25q-.8.8-1.95.8t-2-.85q-.8-.8-.8-1.95 0-1.1.8-1.85l3.2-3.05z"/><path id="e" fill="none" stroke="#2F2F2F" stroke-linecap="round" stroke-linejoin="round" stroke-width="3" d="M52.05 49.35H20.4"/><path id="f" fill="none" stroke="#2F2F2F" stroke-linecap="round" stroke-linejoin="round" stroke-width="3" d="M28.35 41.75v7.15"/><path id="g" fill="none" stroke="#2F2F2F" stroke-linecap="round" stroke-linejoin="round" stroke-width="3" d="M36.3 45.75v7.15"/><path id="h" fill="none" stroke="#2F2F2F" stroke-linecap="round" stroke-linejoin="round" stroke-width="3" d="M20.39 43.26v7.115"/><path id="i" fill="none" stroke="#2F2F2F" stroke-linecap="round" stroke-linejoin="round" stroke-width="3" d="M44.269 43.26v7.115"/><path id="j" fill="none" stroke="#2F2F2F" stroke-linecap="round" stroke-linejoin="round" stroke-width="3" d="M52.256 43.26v4.837"/></defs><use transform="scale(.5625)" xlink:href="#a"/><use transform="translate(0 -2.5) scale(.5625)" xlink:href="#b"/><use transform="translate(0 -2.5) scale(.5625)" xlink:href="#c"/><use transform="translate(0 -2.5) scale(.5625)" xlink:href="#d"/><use transform="translate(0 -2.5)" xlink:href="#e"/><use transform="translate(0 1.5)" xlink:href="#f"/><use transform="translate(0 -2.5)" xlink:href="#g"/><use transform="matrix(1 0 0 1 0 -.025)" xlink:href="#h"/><use transform="matrix(1 0 0 1 0 -.025)" xlink:href="#i"/><use transform="matrix(1 0 0 1 0 -.025)" xlink:href="#j"/></svg>

<svg xmlns="http://www.w3.org/2000/svg" version="1.1" xmlns:xlink="http://www.w3.org/1999/xlink" preserveAspectRatio="none" x="0px" y="0px" width="72px" height="72px" viewBox="0 0 72 72">
<defs>
<g id="Layer0_0_FILL">
<path fill="#FCC21B" stroke="none" d="
M 128 93.45
Q 128 66.4 119.45 46.3 103.8 9.5 64 9.5 24.15 9.5 8.55 46.3 0 66.4 0 93.45 0 103.85 18.75 111.2 37.5 118.55 64 118.55 90.55 118.55 109.25 111.2 128 103.85 128 93.45 Z"/>
</g>

<g id="Layer0_1_MEMBER_0_FILL">
<path fill="#2F2F2F" stroke="none" d="
M 36.05 51.5
Q 33.7 54.4 33.75 58.4 33.8 62.4 36.2 65.25 38.65 68.05 42 68 45.35 68 47.7 65.15 50.05 62.25 50 58.25 49.95 54.25 47.55 51.4 45.15 48.55 41.8 48.6 38.45 48.65 36.05 51.5 Z"/>
</g>

<g id="Layer0_1_MEMBER_1_FILL">
<path fill="#2F2F2F" stroke="none" d="
M 94.2 58.3
Q 94.15 54.3 91.8 51.45 89.4 48.6 86.05 48.65 82.7 48.65 80.3 51.5 77.9 54.35 77.9 58.35 77.95 62.35 80.35 65.2 82.75 68.05 86.1 68 89.45 68 91.8 65.15 94.2 62.3 94.2 58.3 Z"/>
</g>

<g id="Layer0_2_MEMBER_0_FILL">
<path fill="#2F2F2F" stroke="none" d="
M 98.7 85.35
Q 97 84.1 95.1 83.9 93.25 83.65 92.3 84.55
L 89.5 87.25
Q 88.55 88.2 88.85 89.95 89.15 91.7 90.55 93.25
L 106.5 111.45
Q 107.95 113.05 110.1 113.15 112.3 113.2 113.95 111.65
L 118.85 107
Q 120.5 105.4 120.45 103.4 120.35 101.35 118.55 100
L 98.7 85.35
M 111.9 102.2
Q 112.7 101.45 113.9 101.45 115.1 101.45 116 102.15 116.9 102.9 116.95 104 117 105.05 116.15 105.85
L 112.65 109.1
Q 111.85 109.9 110.7 109.9 109.55 109.9 108.7 109.05 107.9 108.25 107.9 107.1 107.9 106 108.7 105.25
L 111.9 102.2 Z"/>
</g>

<path id="Layer0_2_MEMBER_1_1_STROKES" stroke="#2F2F2F" stroke-width="3" stroke-linejoin="round" stroke-linecap="round" fill="none" d="
M 52.05 49.35
L 20.4 49.35"/>

<path id="Layer0_2_MEMBER_2_1_STROKES" stroke="#2F2F2F" stroke-width="3" stroke-linejoin="round" stroke-linecap="round" fill="none" d="
M 28.35 41.75
L 28.35 48.9"/>

<path id="Layer0_2_MEMBER_3_1_STROKES" stroke="#2F2F2F" stroke-width="3" stroke-linejoin="round" stroke-linecap="round" fill="none" d="
M 36.3 45.75
L 36.3 52.9"/>

<path id="Layer0_2_MEMBER_4_1_STROKES" stroke="#2F2F2F" stroke-width="3" stroke-linejoin="round" stroke-linecap="round" fill="none" d="
M 20.390625 43.259375
L 20.390625 50.375"/>

<path id="Layer0_2_MEMBER_5_1_STROKES" stroke="#2F2F2F" stroke-width="3" stroke-linejoin="round" stroke-linecap="round" fill="none" d="
M 44.268750000000004 43.259375
L 44.268750000000004 50.375"/>

<path id="Layer0_2_MEMBER_6_1_STROKES" stroke="#2F2F2F" stroke-width="3" stroke-linejoin="round" stroke-linecap="round" fill="none" d="
M 52.25625 43.259375
L 52.25625 48.096875000000004"/>
</defs>

<g id="Layer_1">
<g transform="matrix( 0.5625, 0, 0, 0.5625, 0,0) ">
<use xlink:href="#Layer0_0_FILL"/>
</g>

<g transform="matrix( 0.5625, 0, 0, 0.5625, 0,-2.5) ">
<use xlink:href="#Layer0_1_MEMBER_0_FILL"/>
</g>

<g transform="matrix( 0.5625, 0, 0, 0.5625, 0,-2.5) ">
<use xlink:href="#Layer0_1_MEMBER_1_FILL"/>
</g>

<g transform="matrix( 0.5625, 0, 0, 0.5625, 0,-2.5) ">
<use xlink:href="#Layer0_2_MEMBER_0_FILL"/>
</g>

<g transform="matrix( 1, 0, 0, 1, 0,-2.5) ">
<use xlink:href="#Layer0_2_MEMBER_1_1_STROKES"/>
</g>

<g transform="matrix( 1, 0, 0, 1, 0,1.5) ">
<use xlink:href="#Layer0_2_MEMBER_2_1_STROKES"/>
</g>

<g transform="matrix( 1, 0, 0, 1, 0,-2.5) ">
<use xlink:href="#Layer0_2_MEMBER_3_1_STROKES"/>
</g>

<g transform="matrix( 0.5625, 0, 0, 0.5625, 0,-2.5) ">
<use xlink:href="#Layer0_2_MEMBER_4_1_STROKES" transform="matrix( 1.77777099609375, 0, 0, 1.77777099609375, 0,4.4) "/>
</g>

<g transform="matrix( 0.5625, 0, 0, 0.5625, 0,-2.5) ">
<use xlink:href="#Layer0_2_MEMBER_5_1_STROKES" transform="matrix( 1.77777099609375, 0, 0, 1.77777099609375, 0,4.4) "/>
</g>

<g transform="matrix( 0.5625, 0, 0, 0.5625, 0,-2.5) ">
<use xlink:href="#Layer0_2_MEMBER_6_1_STROKES" transform="matrix( 1.77777099609375, 0, 0, 1.77777099609375, 0,4.4) "/>
</g>
</g>
</svg>
